X: 1
T: Teddy O'Neill's
R: jig
M: 6/8
L: 1/8
K: Dmaj
f2 f fef|gBc dcB|A2d dcd|~f2 e ede|
f2 f fef|gBc dcB|Adf agf|eBc d3:|
e3 e2 d|cde ~g3|Add dcd|~f2 e ede|
f2 f fef|gBc dcB|Adf agf|eBc d3:|

